brandFactory_export/1.Light/(1)Euro_Moneda_1Light.svg

<?xml version="1.0" encoding="UTF-8"?>
<svg width="24px" height="24px" viewBox="0 0 24 24" version="1.1" xmlns="http://www.w3.org/2000/svg" xmlns:xlink="http://www.w3.org/1999/xlink">
    <title>1.Light/(1)Euro_Moneda_1Light</title>
    <g id="Symbols" stroke="none" stroke-width="1" fill="none" fill-rule="evenodd">
        <g id="1.Light/(1)Euro_Moneda_1Light" fill="#5CB615" fill-rule="nonzero">
            <path d="M22.3966387,21.3042017 C22.2285714,20.9142857 21.7781513,20.7361345 21.3882353,20.9008403 C21.3781513,20.9042017 21.3714286,20.907563 21.3613445,20.9142857 C19.9563025,21.6067227 18.205042,21.9563025 16.1579832,21.9563025 C11.0588235,21.9563025 7.98655462,19.7680672 6.92436975,15.5092437 L14.2857143,15.5092437 C14.7260504,15.4991597 15.0756303,15.1327731 15.0655462,14.692437 C15.0756303,14.2521008 14.7294118,13.8857143 14.2857143,13.8756303 L6.60504202,13.8756303 C6.52773109,13.2168067 6.47058824,12.5378151 6.47058824,11.7983193 C6.47058824,11.394958 6.5210084,11.0420168 6.54453782,10.6588235 L14.2823529,10.6588235 C14.7226891,10.6487395 15.0722689,10.2857143 15.0621849,9.84537815 L15.0621849,9.84201681 C15.0722689,9.40168067 14.7260504,9.03529412 14.2823529,9.02521008 L6.71260504,9.02521008 C7.5394958,4.13445378 10.692437,1.63361345 16.1579832,1.63361345 C18.1815126,1.63361345 19.912605,1.97983193 21.3109244,2.65546218 C21.7042017,2.84369748 22.1647059,2.66890756 22.3462185,2.25882353 C22.5277311,1.85210084 22.3596639,1.37815126 21.9663866,1.17310924 C20.3596639,0.393277311 18.4067227,0 16.1579832,0 C9.84537815,0 6.00672269,3.17983193 5.11596639,9.02521008 L2.80336134,9.02521008 C2.36302521,9.03529412 2.01344538,9.40168067 2.02352941,9.84201681 C2.02352941,10.292437 2.37310924,10.6588235 2.80336134,10.6588235 L4.9512605,10.6588235 C4.93109244,11.0285714 4.91092437,11.405042 4.91092437,11.7983193 C4.91092437,12.5277311 4.95798319,13.210084 5.02857143,13.8756303 L2.80336134,13.8756303 C2.36302521,13.8857143 2.01344538,14.2521008 2.02352941,14.692437 C2.02352941,15.1428571 2.37310924,15.5092437 2.80336134,15.5092437 L5.27394958,15.5092437 C6.38655462,20.810084 10.087395,23.589916 16.1546218,23.589916 C18.4336134,23.589916 20.410084,23.1865546 22.0201681,22.389916 C22.4168067,22.1848739 22.5815126,21.707563 22.3966387,21.3042017" id="Path"></path>
        </g>
    </g>
</svg>

<svg width="24" height="24" viewBox="0 0 24 24" xmlns="http://www.w3.org/2000/svg"><path d="M22.397 21.304a.77.77 0 00-1.036-.39c-1.405.693-3.156 1.042-5.203 1.042-5.1 0-8.171-2.188-9.234-6.447h7.362a.8.8 0 00.78-.817.797.797 0 00-.78-.816H6.605a17.54 17.54 0 01-.134-2.078c0-.403.05-.756.074-1.14h7.737c.44-.01.79-.372.78-.813v-.003a.797.797 0 00-.78-.817h-7.57c.827-4.89 3.98-7.391 9.446-7.391 2.024 0 3.755.346 5.153 1.021a.765.765 0 001.035-.396.838.838 0 00-.38-1.086C20.36.393 18.406 0 16.158 0 9.845 0 6.007 3.18 5.116 9.025H2.803a.8.8 0 00-.78.817c0 .45.35.817.78.817h2.148c-.02.37-.04.746-.04 1.14 0 .729.047 1.411.118 2.077H2.803a.8.8 0 00-.78.816c0 .45.35.817.78.817h2.47c1.114 5.301 4.814 8.08 10.882 8.08 2.279 0 4.255-.402 5.865-1.2a.832.832 0 00.377-1.085" fill="#5CB615" fill-rule="nonzero"/></svg>
